X: 207
T: Peggy Bawn
B: O'Neill's 207
N: "Slow"
Z: 1997 by John Chambers <jc@trillian.mit.edu>
M: 3/4
L: 1/8
K:D
A2 \
| d2 (fd) (ec) | d>B AG FE | D2 FA Bc | d4 A2 |
| d2 fd ec | d>B G2 FE | D>E FA Bc | d4 ||
|| d>e \
| f2 f2 ge | fd B2 c>d | eB gf ed | d2 c2 (AB/c/) |
| d2 fd ec | d>B (AG FE) | HD2 FA Bc | Hd4 ||


